X: 44
T: She's A Daughter of Daniel O'Connell   #2
R: air
%S: s:2 b:20(8+8)
B: "O'Neill's 1850 *44"
Q: "Slow"
O: J.O'Neill
Z: Norbert Paap, norbertp@bdu.uva.nl
N: Compacted by using labels and play order [JC]
P: Play A1A2 BA2
M: 3/4
L: 1/4
K: G
"^A"|: B/c/ | (dcA) | (GDE) | F(G2 | G)z [1 G/A/ |  BBB  | cAG | (F3 | F2) :|[2 A | (Bcd) | AGG |
| G3- | "^fine"G2 "^B"|[| G/A/ | Bcd  |  ecc  | f(d2 | d)zd/c/ |  BBB  | cAG | (F3 | F)"->A2"z |]
